X: 11308
T: Eagle's Whistle
R: slip jig
M: 9/8
K: Fmajor
|:A3 c2A G2F|AGA c2A G2F|G3 G2A G2F|G3 GAG F2 D|
CFA c2A G2F|AGA c2A G2A|F3 FGA G2A|F3 F2A G2F:|
|:d3 cde f2c|dfd c2A G2F|G3 G2A G2F|G3 G2A G2A|
d3 cde f2c|dfd c2A G2A|F3 FGA G2A|F3 F2A G2F:|

